X: 32141
T: Peter McArdle's
R: polka
M: 2/4
K: Adorian
|:g>f ga|d/e/d/B/ AG|g>f ga|d2 d2|
g>f ga|d/e/d/B/ AB|cc BG|A2 A2:|
|:B/c/d/B/ dB|B/c/d/B/ dB|g>f ga|d2 d2|
B/c/d/B/ dB|B/c/d/B/ dB|cc BG|A2 A2:|

